lib/svgs/tag.svg

<?xml version="1.0" encoding="UTF-8"?>
<svg width="16px" height="16px" viewBox="0 0 16 16" version="1.1" xmlns="http://www.w3.org/2000/svg" xmlns:xlink="http://www.w3.org/1999/xlink">
    <!-- Generator: sketchtool 51.3 (57544) - http://www.bohemiancoding.com/sketch -->
    <title>app/tag</title>
    <desc>Created with sketchtool.</desc>
    <defs></defs>
    <g id="Icons" stroke="none" stroke-width="1" fill="none" fill-rule="evenodd">
        <g id="Web" transform="translate(-197.000000, -504.000000)" fill="#000000">
            <g id="app/tag" transform="translate(197.000000, 504.000000)">
                <path d="M1.631,2 C0.734,2 0,2.772 0,3.715 L0,12.289 C0,13.232 0.734,14.004 1.631,14.004 L11.772,14.004 C12.311,14.004 12.814,13.713 13.11,13.23 L15.737,8.943 C16.087,8.372 16.087,7.632 15.737,7.061 L13.11,2.774 C12.814,2.291 12.311,2 11.772,2 L1.631,2 M11.772,3.2 C11.892,3.2 12.01,3.275 12.087,3.401 L14.714,7.688 C14.829,7.876 14.829,8.128 14.714,8.316 L12.087,12.603 C12.01,12.729 11.892,12.804 11.772,12.804 L1.631,12.804 C1.397,12.804 1.2,12.568 1.2,12.289 L1.2,3.715 C1.2,3.436 1.397,3.2 1.631,3.2 L11.772,3.2 M11.5804,6.4014 C10.6964,6.4014 9.9794,7.1184 9.9794,8.0014 C9.9794,8.8854 10.6964,9.6024 11.5804,9.6024 C12.4644,9.6024 13.1804,8.8854 13.1804,8.0014 C13.1804,7.1184 12.4644,6.4014 11.5804,6.4014 M11.5804,7.6014 C11.8014,7.6014 11.9804,7.7814 11.9804,8.0014 C11.9804,8.2224 11.8014,8.4024 11.5804,8.4024 C11.3594,8.4024 11.1794,8.2224 11.1794,8.0014 C11.1794,7.7814 11.3594,7.6014 11.5804,7.6014" id="Shape"></path>
            </g>
        </g>
    </g>
</svg>

<svg xmlns="http://www.w3.org/2000/svg" viewBox="0 0 16 16">
    <path d="M1.631 2A1.68 1.68 0 0 0 0 3.715v8.574a1.68 1.68 0 0 0 1.631 1.715h10.141c.539 0 1.042-.291 1.338-.774l2.627-4.287c.35-.571.35-1.311 0-1.882L13.11 2.774A1.576 1.576 0 0 0 11.772 2H1.631m10.141 1.2c.12 0 .238.075.315.201l2.627 4.287a.615.615 0 0 1 0 .628l-2.627 4.287c-.077.126-.195.201-.315.201H1.631c-.234 0-.431-.236-.431-.515V3.715c0-.279.197-.515.431-.515h10.141m-.192 3.201a1.601 1.601 0 1 0 0 3.203 1.601 1.601 0 0 0 0-3.203m0 1.2a.4.4 0 1 1 0 .801.4.4 0 0 1 0-.8"/>
</svg>
